!!!OTL: AUFERSTEHN JA AUFERSTEHN
!!!ARE: Europa, Mitteleuropa, Deutschland
!!!SCT: F1057
!!!YEM: Copyright 1995, estate of Helmut Schaffrath.
**kern
*ICvox
*Ivox
*M3/4
*k[b-e-a-]
*E-:
=1
{4B-
4e-
4c
=2
4B-
4d
4e-}
=3
{8.f
16a-
4g
4f
=4
4e-
4d}
{4e-
=5
4c
4B-
4e-
=6
4c
4B-
4A-
=7
2.G}
=8
{4G
4e-
8d
8c
=9
4B-
4An
4B-}
=10
{4B-
4c
4d
=11
8e-
16d
16e-
4f
4e-
=12
4e-
4d
8r}
{8e-
=13
4f
4e-
4d
=14
8.e-
16f
4g
8r}
{8e-
=15
4f
4e-
4d
=16
2.e-}
==
!!!AGN: Trost - Lied
!!!ONB: ESAC (Essen Associative Code) Database: FINK
!!!AMT: simple triple
!!!AIN: vox
!!!EED: Helmut Schaffrath
!!!EEV: 1.0
*-
